X: 142
T:Turnpike Gate. JC.142
M:6/8
L:1/8
Q:120
S:John Clare,Poet,Helpstone (1793-1864)
R:Jig
O:England
A:Northamptonshire
N:
N:MR. Bars 8,9,13last notes crots in MS given here as dotted crots. Bar
N:16 left as in MS
Z:vmp.P. Headford
K:D
ded e2d|g2e a2f|ded efg|Bed cBA|!
ded f2d|g2e a2f|ded efg|ABc d3|!
|a2f a3|gfg efg|fef def|efd cBA|!
a2fa3|gfg efg|faf d2f|a3"D.C."A|]
